image/values/icon-3.svg

<svg width="48" height="48" viewBox="0 0 48 48" fill="none" xmlns="http://www.w3.org/2000/svg">
<path d="M37 40.5H29C28.18 40.5 27.5 39.82 27.5 39C27.5 38.18 28.18 37.5 29 37.5H37C37.82 37.5 38.5 38.18 38.5 39C38.5 39.82 37.82 40.5 37 40.5Z" fill="#C63031"/>
<path d="M33 44.5C32.18 44.5 31.5 43.82 31.5 43V35C31.5 34.18 32.18 33.5 33 33.5C33.82 33.5 34.5 34.18 34.5 35V43C34.5 43.82 33.82 44.5 33 44.5Z" fill="#C63031"/>
<path d="M24.3175 23.24C24.2575 23.24 24.2175 23.24 24.1575 23.24C24.0575 23.22 23.9175 23.22 23.7975 23.24C17.9975 23.06 13.6175 18.5 13.6175 12.88C13.5975 10.12 14.6775 7.52 16.6375 5.56C18.5975 3.6 21.1975 2.5 23.9775 2.5C29.6975 2.5 34.3575 7.16 34.3575 12.88C34.3575 18.5 29.9775 23.04 24.3775 23.24C24.3575 23.24 24.3375 23.24 24.3175 23.24ZM23.9775 5.5C21.9975 5.5 20.1575 6.28 18.7575 7.66C17.3775 9.06 16.6175 10.9 16.6175 12.86C16.6175 16.86 19.7375 20.1 23.7175 20.22C23.8375 20.2 24.0975 20.2 24.3575 20.22C28.2975 20.04 31.3575 16.82 31.3575 12.86C31.3575 8.82 28.0375 5.5 23.9775 5.5Z" fill="#2E2E2E"/>
<path d="M23.9803 45.1194C19.9003 45.1194 16.0403 44.0594 13.1203 42.0994C10.3403 40.2394 8.82031 37.6994 8.82031 34.9594C8.82031 32.2194 10.3603 29.6994 13.1203 27.8594C19.1003 23.8594 28.8203 23.8594 34.8003 27.8594C35.4803 28.3194 35.6803 29.2594 35.2203 29.9394C34.7603 30.6394 33.8203 30.8194 33.1403 30.3594C28.1603 27.0394 19.7603 27.0394 14.7803 30.3594C12.8603 31.6394 11.8203 33.2594 11.8203 34.9594C11.8203 36.6594 12.8603 38.3194 14.7803 39.5994C17.2003 41.2194 20.4603 42.0994 23.9603 42.0994C24.7803 42.0994 25.4603 42.7794 25.4603 43.5994C25.4603 44.4194 24.8003 45.1194 23.9803 45.1194Z" fill="#2E2E2E"/>
</svg>

<svg xmlns="http://www.w3.org/2000/svg" width="48" height="48" fill="none"><path fill="#C63031" d="M37 40.5h-8c-.82 0-1.5-.68-1.5-1.5s.68-1.5 1.5-1.5h8c.82 0 1.5.68 1.5 1.5s-.68 1.5-1.5 1.5Z"/><path fill="#C63031" d="M33 44.5c-.82 0-1.5-.68-1.5-1.5v-8c0-.82.68-1.5 1.5-1.5s1.5.68 1.5 1.5v8c0 .82-.68 1.5-1.5 1.5Z"/><path fill="#2E2E2E" d="M24.317 23.24h-.16c-.1-.02-.24-.02-.36 0-5.8-.18-10.18-4.74-10.18-10.36-.02-2.76 1.06-5.36 3.02-7.32s4.56-3.06 7.34-3.06c5.72 0 10.38 4.66 10.38 10.38 0 5.62-4.38 10.16-9.98 10.36h-.06Zm-.34-17.74c-1.98 0-3.82.78-5.22 2.16a7.356 7.356 0 0 0-2.14 5.2c0 4 3.12 7.24 7.1 7.36.12-.02.38-.02.64 0 3.94-.18 7-3.4 7-7.36 0-4.04-3.32-7.36-7.38-7.36ZM23.98 45.12c-4.08 0-7.94-1.06-10.86-3.02-2.78-1.86-4.3-4.4-4.3-7.14 0-2.74 1.54-5.26 4.3-7.1 5.98-4 15.7-4 21.68 0 .68.46.88 1.4.42 2.08-.46.7-1.4.88-2.08.42-4.98-3.32-13.38-3.32-18.36 0-1.92 1.28-2.96 2.9-2.96 4.6 0 1.7 1.04 3.36 2.96 4.64 2.42 1.62 5.68 2.5 9.18 2.5.82 0 1.5.68 1.5 1.5s-.66 1.52-1.48 1.52Z"/></svg>
